polaris-icons/icons/new-icons/AnyClickModelMinor.svg

<svg width="20" height="20" viewBox="0 0 20 20" fill="none" xmlns="http://www.w3.org/2000/svg">
<path d="M4.75 4.25C4.75 3.83579 4.41421 3.5 4 3.5C3.58579 3.5 3.25 3.83579 3.25 4.25V15.75C3.25 16.1642 3.58579 16.5 4 16.5C4.41421 16.5 4.75 16.1642 4.75 15.75V4.25Z" fill="#4A4A4A"/>
<path d="M12.75 4.25C12.75 3.83579 12.4142 3.5 12 3.5C11.5858 3.5 11.25 3.83579 11.25 4.25V15.75C11.25 16.1642 11.5858 16.5 12 16.5C12.4142 16.5 12.75 16.1642 12.75 15.75V4.25Z" fill="#4A4A4A"/>
<path d="M8 3.5C8.41421 3.5 8.75 3.83579 8.75 4.25V15.75C8.75 16.1642 8.41421 16.5 8 16.5C7.58579 16.5 7.25 16.1642 7.25 15.75V4.25C7.25 3.83579 7.58579 3.5 8 3.5Z" fill="#4A4A4A"/>
<path d="M16.75 4.25C16.75 3.83579 16.4142 3.5 16 3.5C15.5858 3.5 15.25 3.83579 15.25 4.25V15.75C15.25 16.1642 15.5858 16.5 16 16.5C16.4142 16.5 16.75 16.1642 16.75 15.75V4.25Z" fill="#4A4A4A"/>
</svg>

<svg viewBox="0 0 20 20" xmlns="http://www.w3.org/2000/svg"><path d="M4.75 4.25a.75.75 0 0 0-1.5 0v11.5a.75.75 0 0 0 1.5 0v-11.5Z" fill="#5C5F62"/><path d="M12.75 4.25a.75.75 0 0 0-1.5 0v11.5a.75.75 0 0 0 1.5 0v-11.5Z" fill="#5C5F62"/><path d="M8 3.5a.75.75 0 0 1 .75.75v11.5a.75.75 0 0 1-1.5 0v-11.5a.75.75 0 0 1 .75-.75Z" fill="#5C5F62"/><path d="M16.75 4.25a.75.75 0 0 0-1.5 0v11.5a.75.75 0 0 0 1.5 0v-11.5Z" fill="#5C5F62"/></svg>
